assets/images/services1-icon4.svg

<svg width="77" height="77" viewBox="0 0 77 77" fill="none" xmlns="http://www.w3.org/2000/svg">
<path fill-rule="evenodd" clip-rule="evenodd" d="M35.652 0.891113C37.2359 0.891113 38.8211 0.891113 40.405 0.891113C40.6194 0.935201 40.8365 1.002 41.0536 1.01937C47.1653 1.49098 52.8054 3.38943 58.018 6.5798C58.219 6.70271 58.4347 6.80692 58.6719 6.94052C59.973 5.00599 61.2286 3.12758 62.5512 1.15831C62.7951 1.503 62.9773 1.75417 63.1529 2.01602C65.5005 5.5257 67.8321 9.04606 70.1932 12.545C72.8102 16.4221 74.5951 20.6425 75.4621 25.2384C75.706 26.5423 75.8601 27.8636 76.053 29.1796C76.053 30.4114 76.053 31.6472 76.053 32.8816C75.6363 34.068 75.836 35.249 76.053 36.4354C76.053 38.0159 76.053 39.595 76.053 41.1755C75.9874 41.7072 75.919 42.2403 75.8587 42.7747C75.1043 49.3532 72.9067 55.3999 68.9778 60.7493C61.6681 70.6984 51.7937 76.0839 39.4349 76.6677C30.9285 77.0672 23.1592 74.6744 16.1658 69.8087C15.8066 69.5588 15.3068 69.4039 14.8727 69.3985C11.8523 69.3651 8.83462 69.3838 5.81426 69.3785C5.52884 69.3785 5.24342 69.3491 4.95264 69.3344C4.95264 68.4994 4.95264 67.7472 4.95264 66.9229C5.75396 66.9229 6.50972 66.9229 7.29764 66.9229C7.29764 65.2596 7.29764 63.6724 7.29764 62.0986C5.5208 61.6617 4.86152 60.8788 4.9245 59.102C4.96336 57.9797 4.71546 57.0044 4.1808 56.0118C2.3852 52.6571 1.22878 49.0713 0.578879 45.3305C0.340359 43.9531 0.19162 42.5596 0 41.1755C0 39.595 0 38.0159 0 36.4354C0.04422 36.2243 0.112558 36.0119 0.128638 35.7995C0.542698 30.4354 2.0837 25.4067 4.6565 20.6906C4.8843 20.2698 4.8977 19.9932 4.60424 19.5764C2.6599 16.8042 3.95568 13.0941 7.1958 12.1255C7.65676 11.9893 7.94218 11.7755 8.17936 11.352C9.59306 8.83764 12.5183 7.60318 15.2144 8.51567C16.1832 8.84299 16.9832 8.96456 17.9185 8.51299C18.3272 8.31794 18.5148 8.15494 18.6099 7.71139C19.1647 5.09684 20.6467 3.13159 23.0145 1.90247C23.8962 1.44288 24.9012 1.22111 25.8459 0.891113C26.5896 0.891113 27.332 0.891113 28.073 0.891113C28.8971 1.13293 29.7346 1.6032 30.544 1.56446C32.2538 1.48162 33.9502 1.13293 35.652 0.891113ZM56.414 69.0899C56.7249 68.9242 56.9058 68.8574 57.0572 68.7492C58.3155 67.8327 59.5617 66.8989 60.828 65.9957C61.2393 65.7018 61.3492 65.3504 61.3492 64.8641C61.3331 58.4741 61.3278 52.0813 61.3546 45.6885C61.3573 45.0259 61.1563 44.8362 60.5144 44.7319C53.8908 43.6725 49.1606 38.2283 49.0882 31.583C49.0494 28.1308 49.5746 24.7521 50.593 21.4481C51.8258 17.4361 53.9162 13.8704 56.3189 10.4636C56.6405 10.0066 56.9366 9.53236 57.2381 9.07545C52.7437 5.07546 37.5964 1.71943 33.437 3.78222C33.571 3.96258 33.701 4.14027 33.8296 4.31395C37.3163 9.03804 35.3653 15.4695 29.8431 17.5216C29.5818 17.6205 29.3138 17.9398 29.2174 18.215C28.479 20.3139 26.8228 21.6499 24.6091 21.6659C18.752 21.7073 12.8948 21.6806 6.93718 21.6806C0.84152 32.0867 1.24486 45.4841 6.3851 54.8281C7.34856 54.7065 7.34588 54.7065 7.35392 53.7954C7.36196 52.7827 7.34052 51.77 7.39278 50.7613C7.4638 49.448 8.1338 48.4634 9.28754 47.8622C9.71098 47.6391 9.82354 47.3893 9.82086 46.9457C9.79942 45.1434 9.80746 43.3425 9.81282 41.5402C9.82086 39.1248 11.331 37.5817 13.739 37.5817C23.391 37.5723 33.0457 37.5723 42.7004 37.5817C45.0696 37.5817 46.5972 39.1194 46.6106 41.4815C46.624 43.3064 46.5945 45.1354 46.6347 46.9604C46.64 47.2396 46.829 47.6337 47.0554 47.7673C48.4289 48.5689 49.0842 49.7393 49.0735 51.3077C49.0654 52.2229 49.0869 53.1341 49.0654 54.0465C49.0574 54.4754 49.1539 54.6892 49.6416 54.8C50.7873 55.0566 51.4841 55.9811 51.5176 57.1594C51.5337 57.7259 51.523 58.2964 51.523 58.8615C51.523 60.8935 51.0419 61.5482 49.1391 62.12C49.1391 63.7112 49.1391 65.2997 49.1391 66.967C49.9552 66.967 50.7123 66.967 51.523 66.967C51.523 67.4907 51.523 67.9289 51.523 68.3698C51.5203 69.3758 51.5203 69.3785 50.5234 69.3785C40.7923 69.3785 31.0652 69.3785 21.3395 69.3785C21.0326 69.3785 20.7298 69.3785 20.2434 69.3785C24.3424 72.0425 31.9054 74.7986 40.464 74.1867C45.8896 73.8006 50.9615 72.2696 55.6515 69.468C55.2482 69.3771 54.8529 69.4186 54.4737 69.3598C54.2955 69.3304 54.0234 69.1153 54.0127 68.967C53.9631 68.3124 53.9886 67.6497 53.9886 66.9817C54.8395 66.9817 55.5953 66.9817 56.4127 66.9817C56.414 67.6577 56.414 68.2936 56.414 69.0899ZM62.574 5.56845C62.3931 5.8116 62.2859 5.93852 62.1921 6.0788C60.5439 8.54238 58.9238 11.0233 57.2435 13.4655C53.5169 18.891 51.5123 24.8616 51.5404 31.4521C51.5565 35.4214 53.3146 38.5236 56.623 40.7199C58.0126 41.6418 59.559 42.1989 61.3398 42.3806C61.3398 42.0306 61.3398 41.7647 61.3398 41.4988C61.3398 39.5242 61.2005 37.5376 61.376 35.579C61.5851 33.237 60.7971 31.2798 59.5617 29.4094C59.3861 29.1435 59.2079 28.875 59.0283 28.6104C57.7821 26.8082 56.272 25.2557 54.467 23.8783C54.9641 23.2264 55.4331 22.6091 55.9383 21.9438C58.0448 23.4962 59.7171 25.3372 61.1831 27.3827C61.2487 27.3519 61.3117 27.3185 61.3774 27.2878C61.3774 22.9859 61.3774 18.688 61.3774 14.4074C62.2256 14.4074 62.976 14.4074 63.8456 14.4074C63.8456 19.6165 63.8456 24.7654 63.8456 29.913C65.3866 27.5136 67.0147 25.2704 69.0623 23.2918C69.6331 23.8823 70.1584 24.4328 70.7185 25.0139C70.5872 25.1636 70.4492 25.3319 70.2991 25.4895C67.8911 28.0239 66.0379 30.9204 64.659 34.1281C64.0681 35.5002 63.6647 36.895 63.7853 38.426C63.8644 39.4561 63.7987 40.4968 63.8041 41.5336C63.8041 41.7954 63.8322 42.0573 63.8483 42.3325C64.0265 42.3325 64.123 42.3432 64.2195 42.3325C68.9591 41.7607 73.1962 37.3946 73.5231 32.6425C73.8528 27.8436 72.9603 23.2143 70.8927 18.9044C69.5862 16.1816 67.8616 13.6539 66.2576 11.0821C65.1079 9.24111 63.8497 7.46958 62.574 5.56845ZM33.0766 44.927C32.7148 44.927 32.4012 44.927 32.085 44.927C25.9732 44.927 19.8575 44.927 13.7457 44.927C12.2543 44.927 12.2543 44.927 12.2543 46.4046C12.257 47.3665 12.257 47.3665 13.2231 47.3665C22.977 47.3692 32.7295 47.3665 42.4834 47.3665C44.2053 47.3665 44.1825 47.3665 44.1825 45.6338C44.1825 45.0766 44.0043 44.9083 43.4575 44.9163C41.3537 44.9417 39.2486 44.927 37.1448 44.927C35.5797 44.927 35.6132 44.9243 35.569 43.3692C35.5475 42.6692 35.7311 42.438 36.4641 42.4514C38.7876 42.4982 41.1152 42.4808 43.4441 42.4514C43.6853 42.4487 44.0981 42.243 44.1383 42.0666C44.4237 40.732 43.8301 40.0266 42.474 40.0266C32.9707 40.0239 23.4621 40.0239 13.9601 40.0266C13.7136 40.0266 13.4603 40.0239 13.2218 40.0813C12.47 40.2537 12.1592 40.9043 12.2556 41.9918C12.332 42.8121 12.9672 42.4501 13.3397 42.4527C19.6029 42.4781 25.866 42.4701 32.1278 42.4701C32.4387 42.4701 32.7509 42.4701 33.0779 42.4701C33.0766 43.3345 33.0766 44.0867 33.0766 44.927ZM16.5611 12.1082C16.3467 11.9385 16.1497 11.7902 15.9567 11.6352C13.6144 9.77685 10.6597 10.712 9.92672 13.5925C9.73242 14.346 9.36392 14.3967 8.7301 14.366C7.29094 14.2992 6.18142 15.352 6.14926 16.7374C6.11844 18.1068 7.19312 19.205 8.62558 19.2357C9.46576 19.2558 10.3086 19.2411 11.1488 19.2411C15.5976 19.2411 20.0504 19.2518 24.5019 19.2331C25.9076 19.229 26.9621 18.1562 26.9702 16.8069C26.9755 15.4482 25.8968 14.2818 24.5287 14.3874C23.592 14.4595 23.3482 14.1042 23.1177 13.2945C22.4088 10.8109 19.5238 9.89308 17.4441 11.4215C17.148 11.6366 16.8652 11.8717 16.5611 12.1082ZM14.7172 49.8555C14.7172 51.2169 14.7172 52.4901 14.7172 53.7646C14.7172 54.7159 14.7199 54.7186 15.6941 54.7186C24.0302 54.7186 32.3623 54.7186 40.6958 54.7186C40.8687 54.7186 41.075 54.7747 41.209 54.7012C41.4033 54.5943 41.6834 54.3966 41.6847 54.2322C41.7236 52.7907 41.7088 51.3465 41.7088 49.8555C32.7362 49.8555 23.6966 49.8555 14.7172 49.8555ZM41.6686 62.1026C32.6397 62.1026 23.7046 62.1026 14.7668 62.1026C14.7668 63.7312 14.7668 65.297 14.7668 66.8855C23.7515 66.8855 32.6866 66.8855 41.6686 66.8855C41.6686 65.2716 41.6686 63.7072 41.6686 62.1026ZM73.4199 39.4828C73.294 39.6218 73.1667 39.7607 73.0461 39.9063C70.8418 42.5596 68.0425 44.1976 64.6242 44.7293C63.9783 44.8295 63.7813 45.0392 63.784 45.6952C63.8108 51.2182 63.8001 56.7426 63.8001 62.267C63.8028 62.4967 63.8282 62.7279 63.855 63.1687C70.0807 56.3525 73.3047 48.5596 73.4199 39.4828ZM7.47184 57.1501C7.42226 57.2837 7.37536 57.3491 7.37268 57.4186C7.35928 57.8141 7.35124 58.2082 7.35124 58.6023C7.34856 59.6003 7.35124 59.6003 8.36696 59.6003C21.4561 59.6003 34.5465 59.603 47.6383 59.5976C49.2946 59.5976 49.0601 59.8101 49.0748 58.128C49.0829 57.1527 49.0748 57.1501 48.1248 57.1501C34.8373 57.1501 21.5499 57.1501 8.26244 57.1501C7.9931 57.1501 7.72644 57.1501 7.47184 57.1501ZM29.1169 15.0928C31.6428 14.4716 33.5161 11.3346 33.0658 8.58781C32.5298 5.3253 29.7212 3.10219 26.473 3.36806C23.6939 3.59785 21.0742 6.02803 21.0862 8.4021C22.8979 8.92448 24.2768 9.99862 25.1478 11.702C25.2242 11.8476 25.4359 11.9679 25.6087 12.0146C27.2717 12.4622 28.4562 13.4509 29.1169 15.0928ZM46.5596 66.9082C46.5596 65.2556 46.5596 63.6751 46.5596 62.0879C45.7489 62.0879 44.9999 62.0879 44.2254 62.0879C44.2254 63.7205 44.2254 65.3023 44.2254 66.9082C45.016 66.9082 45.7543 66.9082 46.5596 66.9082ZM9.85704 62.0786C9.85704 63.7005 9.85704 65.2796 9.85704 66.8935C10.6584 66.8935 11.4088 66.8935 12.2074 66.8935C12.2074 65.2743 12.2074 63.6938 12.2074 62.0786C11.4007 62.0786 10.649 62.0786 9.85704 62.0786ZM46.6173 52.6037C46.6173 52.6037 46.6146 52.6037 46.6119 52.6037C46.6119 52.088 46.6333 51.5723 46.6092 51.0566C46.573 50.3271 46.0652 49.8341 45.3898 49.8315C44.7386 49.8288 44.212 50.287 44.1865 50.9818C44.1476 52.0639 44.1557 53.1488 44.1865 54.2282C44.1919 54.3939 44.4223 54.6664 44.5818 54.6972C46.3747 55.0272 46.6186 54.8174 46.6186 53.0486C46.6173 52.9003 46.6173 52.7506 46.6173 52.6037ZM9.81684 54.7132C10.5498 54.7132 11.1877 54.7426 11.8215 54.6932C11.9756 54.6785 12.2302 54.4099 12.2329 54.255C12.2637 53.1461 12.2744 52.0372 12.2275 50.9297C12.1967 50.255 11.6982 49.8435 11.0577 49.8368C10.4011 49.8288 9.84632 50.2897 9.82488 50.9604C9.79406 52.1628 9.81684 53.3679 9.81684 54.7132Z" fill="#9C8679"/>
<path fill-rule="evenodd" clip-rule="evenodd" d="M0.00244141 66.9402C0.785001 66.9402 1.56488 66.9402 2.39702 66.9402C2.39702 67.7525 2.39702 68.5006 2.39702 69.3276C1.59034 69.3717 0.798401 69.4131 0.00244141 69.4559C0.00244141 68.6182 0.00244141 67.7779 0.00244141 66.9402Z" fill="#9C8679"/>
<path fill-rule="evenodd" clip-rule="evenodd" d="M39.1952 28.9845C38.3858 28.9845 37.6515 28.9845 36.8234 28.9845C36.8341 27.5336 37.3889 26.3699 38.3912 25.4214C39.9456 23.9544 42.3871 23.7246 44.2483 24.8322C46.0721 25.9183 46.9886 28.1495 46.4567 30.2069C45.9153 32.3218 44.0406 33.8876 41.8899 33.8969C36.274 33.9263 30.654 33.9103 25.0381 33.9076C24.8947 33.9076 24.7527 33.8822 24.5718 33.8662C24.5718 33.074 24.5718 32.3231 24.5718 31.4721C24.8987 31.4721 25.1895 31.4721 25.4803 31.4721C30.6514 31.4721 35.8238 31.4721 40.9948 31.4721C41.2936 31.4721 41.5911 31.4774 41.8846 31.4494C43.1723 31.3238 44.1465 30.2871 44.1559 29.0419C44.1693 27.8729 43.2876 26.8108 42.1512 26.6331C40.8139 26.422 39.6883 27.1488 39.3279 28.4541C39.285 28.6184 39.2448 28.7854 39.1952 28.9845Z" fill="#9C8679"/>
<path fill-rule="evenodd" clip-rule="evenodd" d="M14.7588 27.7205C14.7588 26.9109 14.7588 26.1788 14.7588 25.3972C19.635 25.3972 24.4684 25.3972 29.3702 25.3972C29.3702 26.1587 29.3702 26.9082 29.3702 27.7205C24.518 27.7205 19.6632 27.7205 14.7588 27.7205Z" fill="#9C8679"/>
<path fill-rule="evenodd" clip-rule="evenodd" d="M9.84619 27.7152C9.84619 26.9096 9.84619 26.1815 9.84619 25.3492C10.5376 25.3492 11.1916 25.3265 11.8455 25.3666C11.9862 25.3772 12.222 25.6057 12.23 25.746C12.2743 26.3779 12.2515 27.0125 12.2515 27.7152C11.426 27.7152 10.6596 27.7152 9.84619 27.7152Z" fill="#9C8679"/>
<path fill-rule="evenodd" clip-rule="evenodd" d="M19.6658 33.8769C19.647 33.6885 19.6296 33.5937 19.6269 33.4975C19.5612 31.2917 19.655 31.2156 22.0054 31.5536C22.0054 32.3098 22.0054 33.0766 22.0054 33.8769C21.2255 33.8769 20.4738 33.8769 19.6658 33.8769Z" fill="#9C8679"/>
</svg>

<svg width="77" height="77" fill="none" xmlns="http://www.w3.org/2000/svg"><path fill-rule="evenodd" clip-rule="evenodd" d="M35.652.891h4.753c.214.044.431.111.649.128 6.111.472 11.751 2.37 16.964 5.56.201.124.417.228.654.362 1.301-1.935 2.557-3.813 3.88-5.783.243.345.425.596.6.858 2.349 3.51 4.68 7.03 7.041 10.529 2.617 3.877 4.402 8.097 5.27 12.693.243 1.304.397 2.626.59 3.942v3.702c-.417 1.186-.217 2.367 0 3.553v4.74c-.066.532-.134 1.065-.194 1.6-.755 6.578-2.952 12.625-6.881 17.974-7.31 9.95-17.184 15.335-29.543 15.919-8.507.4-16.276-1.994-23.27-6.86a2.447 2.447 0 00-1.292-.41c-3.02-.033-6.038-.014-9.059-.02-.285 0-.57-.029-.861-.044v-2.411h2.345v-4.824c-1.777-.437-2.436-1.22-2.373-2.997.038-1.122-.21-2.098-.744-3.09-1.796-3.355-2.952-6.94-3.602-10.681C.34 43.953.192 42.56 0 41.175v-4.74c.044-.21.113-.423.129-.636.414-5.364 1.955-10.392 4.528-15.108.227-.421.24-.698-.053-1.115-1.944-2.772-.648-6.482 2.592-7.45.46-.137.746-.35.983-.774 1.414-2.514 4.34-3.749 7.035-2.836.97.327 1.77.449 2.705-.003.408-.195.596-.358.69-.802.556-2.614 2.038-4.58 4.405-5.809.882-.46 1.887-.68 2.832-1.01h2.227c.824.24 1.662.711 2.471.672 1.71-.082 3.406-.431 5.108-.673zM56.414 69.09c.31-.166.492-.233.643-.34 1.258-.917 2.505-1.851 3.771-2.754.411-.294.521-.646.521-1.132-.016-6.39-.021-12.783.006-19.176.002-.662-.199-.852-.84-.956-6.624-1.06-11.354-6.504-11.427-13.149-.039-3.452.487-6.83 1.505-10.135 1.233-4.012 3.323-7.578 5.726-10.984.322-.457.618-.932.92-1.389-4.495-4-19.643-7.356-23.802-5.293l.393.532c3.486 4.724 1.535 11.155-3.987 13.208-.261.099-.53.418-.626.693-.738 2.099-2.394 3.435-4.608 3.45-5.857.042-11.714.016-17.672.016-6.095 10.406-5.692 23.803-.552 33.147.964-.122.96-.122.969-1.033.008-1.012-.013-2.025.039-3.034.07-1.313.74-2.298 1.895-2.899.423-.223.536-.473.533-.916-.022-1.803-.014-3.603-.008-5.406.008-2.415 1.518-3.958 3.926-3.958 9.652-.01 19.307-.01 28.961 0 2.37 0 3.897 1.537 3.91 3.9.014 1.824-.016 3.653.025 5.478.005.28.194.674.42.807 1.374.802 2.03 1.972 2.019 3.54-.009.916.013 1.827-.009 2.74-.008.428.089.642.577.753 1.145.257 1.842 1.181 1.876 2.36.016.566.005 1.136.005 1.702 0 2.032-.481 2.686-2.384 3.258v4.847h2.384v1.403c-.003 1.006-.003 1.008-1 1.008h-30.28c4.1 2.665 11.662 5.42 20.221 4.809 5.426-.386 10.498-1.917 15.188-4.719-.404-.09-.8-.05-1.178-.108-.178-.03-.45-.245-.461-.393-.05-.655-.024-1.317-.024-1.985h2.424l.001 2.108zm6.16-63.522c-.18.244-.288.37-.382.51-1.648 2.464-3.268 4.945-4.949 7.388-3.726 5.425-5.73 11.396-5.703 17.986.017 3.97 1.775 7.072 5.083 9.268 1.39.922 2.936 1.479 4.717 1.66v-.88c0-1.975-.14-3.961.036-5.92.21-2.342-.579-4.3-1.814-6.17a75.987 75.987 0 00-.534-.799c-1.246-1.802-2.756-3.354-4.561-4.732l1.471-1.934c2.107 1.552 3.78 3.393 5.245 5.439.066-.031.129-.064.194-.095v-12.88h2.469v15.505c1.54-2.4 3.169-4.643 5.216-6.621.571.59 1.096 1.14 1.657 1.722-.132.15-.27.318-.42.476-2.408 2.534-4.261 5.43-5.64 8.638-.59 1.372-.994 2.767-.874 4.298.08 1.03.014 2.07.02 3.108 0 .261.027.523.043.799.178 0 .275.01.371 0 4.74-.572 8.977-4.938 9.304-9.69a27.117 27.117 0 00-2.63-13.739c-1.307-2.722-3.031-5.25-4.635-7.822-1.15-1.84-2.408-3.612-3.684-5.514zM33.077 44.927H13.745c-1.49 0-1.49 0-1.49 1.478.002.962.002.962.968.962 9.754.002 19.506 0 29.26 0 1.722 0 1.7 0 1.7-1.733 0-.557-.179-.726-.725-.718-2.104.026-4.21.011-6.313.011-1.565 0-1.532-.003-1.576-1.558-.022-.7.162-.931.895-.918 2.324.047 4.651.03 6.98 0 .241-.002.654-.208.694-.384.286-1.335-.308-2.04-1.664-2.04-9.503-.003-19.012-.003-28.514 0-.246 0-.5-.003-.738.054-.752.173-1.063.823-.966 1.91.076.821.711.46 1.084.462 6.263.025 12.526.017 18.788.017h.95l-.001 2.457zM16.56 12.108c-.214-.17-.411-.318-.604-.473-2.343-1.858-5.297-.923-6.03 1.957-.195.754-.563.805-1.197.774-1.44-.067-2.549.986-2.58 2.371-.032 1.37 1.043 2.468 2.476 2.499.84.02 1.683.005 2.523.005 4.449 0 8.901.01 13.353-.008 1.406-.004 2.46-1.077 2.468-2.426.006-1.359-1.073-2.525-2.441-2.42-.937.072-1.18-.283-1.411-1.093-.71-2.483-3.594-3.4-5.674-1.873-.296.216-.579.45-.883.687zm-1.844 37.748v3.909c0 .95.003.954.977.954h25.002c.173 0 .379.056.513-.018.194-.107.474-.304.476-.469.039-1.441.024-2.886.024-4.377H14.717zM41.67 62.102H14.767v4.782h26.902v-4.782zm31.75-22.62c-.125.139-.252.278-.373.423-2.204 2.654-5.004 4.292-8.422 4.823-.646.1-.843.31-.84.966.027 5.523.016 11.048.016 16.572.003.23.028.46.055.902 6.226-6.816 9.45-14.61 9.565-23.686zM7.473 57.15c-.05.134-.097.2-.1.269-.013.395-.02.79-.02 1.183-.003.998 0 .998 1.015.998 13.09 0 26.18.003 39.271-.002 1.657 0 1.422.212 1.437-1.47.008-.975 0-.978-.95-.978H7.472zm21.645-42.057c2.526-.621 4.4-3.758 3.949-6.505-.536-3.263-3.345-5.486-6.593-5.22-2.78.23-5.399 2.66-5.387 5.034 1.812.522 3.19 1.597 4.062 3.3.076.146.288.266.46.313 1.664.447 2.848 1.436 3.509 3.078zM46.56 66.908v-4.82h-2.335v4.82h2.335zm-36.703-4.83v4.816h2.35v-4.815h-2.35zm36.76-9.474h-.005c0-.516.021-1.032-.003-1.547-.036-.73-.544-1.223-1.22-1.226-.65-.002-1.177.456-1.203 1.15a50.415 50.415 0 000 3.247c.006.166.236.438.396.47 1.793.33 2.037.12 2.037-1.65-.002-.148-.002-.297-.002-.444zm-36.8 2.11c.733 0 1.37.029 2.005-.02.154-.016.408-.284.41-.439a47.45 47.45 0 00-.005-3.325c-.03-.675-.529-1.087-1.17-1.093-.656-.008-1.21.453-1.232 1.123-.03 1.203-.008 2.408-.008 3.753zM.002 66.94h2.395v2.388l-2.395.128V66.94z" fill="#9C8679"/><path fill-rule="evenodd" clip-rule="evenodd" d="M39.195 28.985h-2.372c.011-1.451.566-2.615 1.568-3.564 1.555-1.467 3.996-1.696 5.857-.589 1.824 1.086 2.74 3.317 2.209 5.375-.542 2.115-2.416 3.68-4.567 3.69-5.616.03-11.236.013-16.852.01-.143 0-.285-.025-.466-.04v-2.395h16.423c.299 0 .596.005.89-.023 1.287-.125 2.262-1.162 2.27-2.407.014-1.17-.867-2.231-2.004-2.409-1.337-.211-2.463.516-2.823 1.821-.043.164-.083.331-.133.53zM14.759 27.72v-2.323H29.37v2.324H14.76zm-4.913-.005V25.35c.692 0 1.346-.023 2 .018.14.01.376.239.384.379.044.632.021 1.267.021 1.97H9.847zm9.82 6.162c-.019-.189-.036-.283-.04-.38-.065-2.205.029-2.281 2.38-1.943v2.323h-2.34z" fill="#9C8679"/></svg>
